X: 1
T: Cruinni\'u na mBad
T: Gathering of the Boats
C: Hank Laramee
R: jig
%D:2004
B: PC3 p.57
S: Fiddle Hell Online 2021-10-13 PC3 p.57
Z: 2022 John Chambers <jc:trillian.mit.edu>
M: 6/8
L: 1/8
K: A
%%continueall
"^A"|: D \
| "A"E2A BAB | "F#m"cef fec | "A"A2B cBA | "E"B2F "D"F2D |\
| "A"E2A BAB | cef afe | "F#m"c2e fec | "E"B2A "A"A2 :|
"^B"|: e \
| "D"f2a afe | "A"e2c cBA | "D"f2a afe | "E"e2f e2c |\
| "D"f2a afe | "A"e2c cBA | "F#m"c2e fec | "E"B2A "A"A2 :|
